images/sprite/twitter.svg

<svg width="22" height="18" viewBox="0 0 22 18" fill="none" xmlns="http://www.w3.org/2000/svg">
<path d="M21.1603 2.65593C20.3969 2.99362 19.5873 3.2154 18.7583 3.31393C19.6321 2.79136 20.2861 1.96894 20.5983 0.999927C19.7783 1.48793 18.8793 1.82993 17.9423 2.01493C17.313 1.34151 16.4787 0.89489 15.5693 0.744511C14.6599 0.594133 13.7263 0.748418 12.9136 1.18338C12.1009 1.61834 11.4547 2.30961 11.0755 3.14972C10.6962 3.98983 10.6051 4.93171 10.8163 5.82893C9.15345 5.74558 7.52668 5.31345 6.04163 4.56059C4.55659 3.80773 3.24647 2.75097 2.19634 1.45893C1.82463 2.09738 1.6293 2.82315 1.63034 3.56193C1.63034 5.01193 2.36834 6.29293 3.49034 7.04293C2.82635 7.02202 2.17698 6.84271 1.59634 6.51993V6.57193C1.59654 7.53763 1.93071 8.47354 2.54219 9.22099C3.15367 9.96843 4.00483 10.4814 4.95134 10.6729C4.33496 10.84 3.68865 10.8646 3.06134 10.7449C3.32821 11.5762 3.84835 12.3031 4.54894 12.824C5.24952 13.3449 6.09547 13.6337 6.96834 13.6499C6.10082 14.3313 5.10752 14.8349 4.04522 15.1321C2.98293 15.4293 1.87247 15.5142 0.777344 15.3819C2.68904 16.6114 4.91444 17.264 7.18734 17.2619C14.8803 17.2619 19.0873 10.8889 19.0873 5.36193C19.0873 5.18193 19.0823 4.99993 19.0743 4.82193C19.8932 4.23009 20.5999 3.49695 21.1613 2.65693L21.1603 2.65593Z" fill="url(#paint0_linear_1_262)"/>
<defs>
<linearGradient id="paint0_linear_1_262" x1="0.777344" y1="8.9752" x2="15.7438" y2="1.53882" gradientUnits="userSpaceOnUse">
<stop stop-color="#FF62B7"/>
<stop offset="1" stop-color="#9F53FF"/>
</linearGradient>
</defs>
</svg>

<svg xmlns="http://www.w3.org/2000/svg" width="22" height="18" fill="none"><path fill="url(#a)" d="M21.16 2.656a8.383 8.383 0 0 1-2.402.658A4.195 4.195 0 0 0 20.598 1c-.82.488-1.719.83-2.656 1.015a4.182 4.182 0 0 0-7.126 3.814 11.874 11.874 0 0 1-8.62-4.37 4.168 4.168 0 0 0-.566 2.103c0 1.45.738 2.73 1.86 3.48a4.168 4.168 0 0 1-1.894-.522v.052a4.185 4.185 0 0 0 3.355 4.1 4.208 4.208 0 0 1-1.89.073 4.185 4.185 0 0 0 3.907 2.905 8.393 8.393 0 0 1-6.19 1.732 11.83 11.83 0 0 0 6.41 1.88c7.692 0 11.9-6.373 11.9-11.9 0-.18-.006-.362-.014-.54a8.495 8.495 0 0 0 2.087-2.165v-.001Z"/><defs><linearGradient id="a" x1=".777" x2="15.744" y1="8.975" y2="1.539" gradientUnits="userSpaceOnUse"><stop stop-color="#FF62B7"/><stop offset="1" stop-color="#9F53FF"/></linearGradient></defs></svg>
